static/svg/moremoji/puke.svg

<?xml version="1.0" encoding="UTF-8" standalone="no"?>
<svg
   xmlns:dc="http://purl.org/dc/elements/1.1/"
   xmlns:cc="http://creativecommons.org/ns#"
   xmlns:rdf="http://www.w3.org/1999/02/22-rdf-syntax-ns#"
   xmlns:svg="http://www.w3.org/2000/svg"
   xmlns="http://www.w3.org/2000/svg"
   xmlns:sodipodi="http://sodipodi.sourceforge.net/DTD/sodipodi-0.dtd"
   xmlns:inkscape="http://www.inkscape.org/namespaces/inkscape"
   viewBox="0 0 45 45"
   style="enable-background:new 0 0 45 45;"
   xml:space="preserve"
   version="1.1"
   id="svg2"
   inkscape:version="0.91 r13725"
   sodipodi:docname="puke.svg"
   inkscape:export-filename="C:\Users\Soyez\Desktop\Stuff\My Art\somoji\svg\rough\puke.png"
   inkscape:export-xdpi="1024"
   inkscape:export-ydpi="1024"><sodipodi:namedview
     pagecolor="#ffffff"
     bordercolor="#666666"
     borderopacity="1"
     objecttolerance="10"
     gridtolerance="10"
     guidetolerance="10"
     inkscape:pageopacity="0"
     inkscape:pageshadow="2"
     inkscape:window-width="1920"
     inkscape:window-height="1031"
     id="namedview5520"
     showgrid="false"
     inkscape:zoom="14.833529"
     inkscape:cx="25.739422"
     inkscape:cy="20.84763"
     inkscape:window-x="-8"
     inkscape:window-y="-8"
     inkscape:window-maximized="1"
     inkscape:current-layer="svg2" /><metadata
     id="metadata8"><rdf:RDF><cc:Work
         rdf:about=""><dc:format>image/svg+xml</dc:format><dc:type
           rdf:resource="http://purl.org/dc/dcmitype/StillImage" /></cc:Work></rdf:RDF></metadata><defs
     id="defs6"><clipPath
       id="clipPath16"
       clipPathUnits="userSpaceOnUse"><path
         id="path18"
         d="M 0,36 36,36 36,0 0,0 0,36 Z" /></clipPath><clipPath
       id="clipPath16-8"
       clipPathUnits="userSpaceOnUse"><path
         inkscape:connector-curvature="0"
         id="path18-3"
         d="M 0,36 36,36 36,0 0,0 0,36 Z" /></clipPath><clipPath
       id="clipPath16-9"
       clipPathUnits="userSpaceOnUse"><path
         inkscape:connector-curvature="0"
         id="path18-36"
         d="M 0,36 36,36 36,0 0,0 0,36 Z" /></clipPath></defs><g
     id="g20"
     transform="matrix(1.25,0,0,-1.25,44.881727,22.63483)"
     style="fill:#ffcc4d;fill-opacity:1"><path
       inkscape:connector-curvature="0"
       d="m 0,0 c 0,-9.941 -8.059,-18 -18,-18 -9.941,0 -18,8.059 -18,18 0,9.941 8.059,18 18,18 C -8.059,18 0,9.941 0,0"
       style="fill:#ffcc4d;fill-opacity:1;fill-rule:nonzero;stroke:none"
       id="path22" /></g><g
     id="g24"
     transform="matrix(1.7266949,0,0,-0.97285008,29.288507,33.974716)"
     style="fill:#664500;fill-opacity:1"><path
       inkscape:connector-curvature="0"
       d="m 0,0 c 0,-2.763 -1.791,-3 -4,-3 -2.21,0 -4,0.237 -4,3 0,2.761 1.79,6 4,6 2.209,0 4,-3.239 4,-6"
       style="fill:#664500;fill-opacity:1;fill-rule:nonzero;stroke:none"
       id="path26" /></g><g
     id="g48"
     transform="matrix(0.84176568,0,0,-1.25,37.533509,42.63483)"
     style="fill:#77b255;fill-opacity:1"><path
       inkscape:connector-curvature="0"
       d="m 0,0 c 0,-1.104 -8.059,-2 -18,-2 -9.941,0 -18,0.896 -18,2 0,1.104 8.059,2 18,2 C -8.059,2 0,1.104 0,0"
       style="fill:#77b255;fill-opacity:1;fill-rule:nonzero;stroke:none"
       id="path50" /></g><g
     id="g52"
     transform="matrix(2.0669865,0,0,-2.6781251,28.582687,37.837478)"
     style="fill:#77b255;fill-opacity:1"><path
       inkscape:connector-curvature="0"
       d="m 0,0 c 0,-1.657 0.86071731,-2 -3,-2 -3.8607173,0 -3,0.343 -3,2 0,1.657 1.343,2 3,2 1.657,0 3,-0.343 3,-2"
       style="fill:#77b255;fill-opacity:1;fill-rule:nonzero;stroke:none"
       id="path54"
       sodipodi:nodetypes="czssc" /></g><g
     id="g10594"
     transform="translate(-38.42646,-2.9363446)"><g
       id="g4884-9"
       transform="translate(38.308193,2.4869251)"><g
         id="g32-3"
         transform="matrix(1.25,0,0,-1.25,18.125,19.559015)"><path
           inkscape:connector-curvature="0"
           d="M 0,0 C 0,-1.934 -1.119,-3.5 -2.5,-3.5 -3.881,-3.5 -5,-1.934 -5,0 -5,1.933 -3.881,3.5 -2.5,3.5 -1.119,3.5 0,1.933 0,0"
           style="fill:#664500;fill-opacity:1;fill-rule:nonzero;stroke:none"
           id="path34-5" /></g><g
         id="g36-4-1-9"
         transform="matrix(1.25,0,0,-1.25,33.125,19.559015)"><path
           inkscape:connector-curvature="0"
           d="M 0,0 C 0,-1.934 -1.119,-3.5 -2.5,-3.5 -3.881,-3.5 -5,-1.934 -5,0 -5,1.933 -3.881,3.5 -2.5,3.5 -1.119,3.5 0,1.933 0,0"
           style="fill:#664500;fill-opacity:1;fill-rule:nonzero;stroke:none"
           id="path38-1-4-5" /></g></g><g
       style="fill:#ffcc4d;fill-opacity:1"
       transform="matrix(0.87951373,0,0,1.4929414,41.441666,-5.4465159)"
       id="g4977-7-2"><path
         id="path54-8-6"
         style="fill:#ffcc4d;fill-opacity:1;fill-rule:nonzero;stroke:none"
         d="m 38.150486,15.518215 c -0.319091,-0.239777 -0.751754,-0.349118 -1.182369,-0.263027 -5.793239,1.15227 -9.439426,-1.465655 -9.591985,-1.57873 -0.580576,-0.426884 -1.432496,-0.363421 -1.902002,0.142202 -0.471184,0.507492 -0.38896,1.263528 0.186478,1.695909 0.192502,0.144653 4.789637,3.520939 11.948355,2.098497 0.727863,-0.144176 1.173498,-0.789707 0.996042,-1.440614 -0.0721,-0.265262 -0.235832,-0.489941 -0.454487,-0.654246"
         inkscape:connector-curvature="0" /><g
         style="fill:#ffcc4d;fill-opacity:1"
         id="g56-44-6"
         transform="matrix(1.0461959,-0.78615246,0.86091523,0.916703,6.8590762,15.519045)"><path
           inkscape:connector-curvature="0"
           d="m 0,0 c -0.208,0 -0.419,0.065 -0.599,0.2 -0.442,0.331 -0.531,0.958 -0.2,1.4 3.262,4.35 7.616,4.4 7.8,4.4 0.552,0 1,-0.448 1,-1 C 8.001,4.449 7.556,4.002 7.005,4 6.85,3.998 3.436,3.914 0.801,0.4 0.604,0.138 0.304,0 0,0"
           style="fill:#ffcc4d;fill-opacity:1;fill-rule:nonzero;stroke:none"
           id="path58-3-4" /></g></g><path
       inkscape:connector-curvature="0"
       d="m 76.136735,25.62663 c -0.26959,0.226998 -0.65673,0.34757 -1.06155,0.298449 -5.4456,-0.655694 -8.538312,1.832386 -8.667358,1.939562 -0.49144,0.404879 -1.281633,0.400419 -1.764232,-0.01037 -0.484333,-0.412356 -0.484367,-1.073235 0.0018,-1.482584 0.162631,-0.136944 4.05437,-3.339528 10.78338,-2.53051 0.68412,0.08192 1.15877,0.61551 1.06066,1.190829 -0.0398,0.234444 -0.16794,0.439117 -0.35267,0.594669"
       style="fill:#f4900c;fill-opacity:1;fill-rule:nonzero;stroke:none"
       id="path54-28-2" /><g
       transform="matrix(0.88388352,0.74426787,0.88388348,-0.74426793,45.47959,25.62534)"
       id="g56-4-6"
       style="fill:#f4900c;fill-opacity:1"><path
         id="path58-5-1"
         style="fill:#f4900c;fill-opacity:1;fill-rule:nonzero;stroke:none"
         d="m 0,0 c -0.208,0 -0.419,0.065 -0.599,0.2 -0.442,0.331 -0.531,0.958 -0.2,1.4 3.262,4.35 7.616,4.4 7.8,4.4 0.552,0 1,-0.448 1,-1 C 8.001,4.449 7.556,4.002 7.005,4 6.85,3.998 3.436,3.914 0.801,0.4 0.604,0.138 0.304,0 0,0"
         inkscape:connector-curvature="0" /></g><g
       transform="matrix(0.65125562,-1.242436,1.0605006,0.66545392,45.526624,22.178855)"
       id="g56-6-4"><path
         sodipodi:nodetypes="asscsa"
         id="path58-7-6"
         style="fill:#664500;fill-opacity:1;fill-rule:nonzero;stroke:none"
         d="M 6.7800601,7.0635177 C 8.0126324,7.1486904 9.5179353,6.4804925 9.4421149,4.4843969 9.4162559,3.8036181 8.8452108,3.5023613 8.0318183,4.8504529 7.5817713,5.5963468 6.6872241,5.5864453 5.2893399,4.6524933 3.1107929,3.3808787 2.1812471,-2.1200487 1.0477087,-0.27338437 0.15511526,1.1807529 3.6838616,6.8495654 6.7800601,7.0635177 Z"
         inkscape:connector-curvature="0" /></g><g
       transform="matrix(-0.73014851,-1.1621732,-1.0128824,0.78592213,76.576165,21.0727)"
       id="g56-6-8-5"><path
         sodipodi:nodetypes="ssssscss"
         id="path58-7-2-4"
         style="fill:#664500;fill-opacity:1;fill-rule:nonzero;stroke:none"
         d="M 5.7437111,6.5624401 C 6.3599972,6.6050264 6.5422034,6.0789969 6.7177834,6.7156254 7.1579995,8.3117867 9.873112,6.3930593 9.9756,5.0456898 10.057843,3.9644699 7.7132799,6.123639 7.6943248,5.6246151 7.6684659,4.9438363 7.3720145,3.0251727 6.558622,4.3732643 6.108575,5.1191582 5.6508751,5.0853677 4.2529909,4.1514157 2.0744439,2.8798011 1.6338142,-1.9217795 0.50027576,-0.07511508 -0.39231764,1.3790221 2.6475126,6.3484879 5.7437111,6.5624401 Z"
         inkscape:connector-curvature="0" /></g></g></svg>

<svg xmlns="http://www.w3.org/2000/svg" xml:space="preserve" viewBox="0 0 45 45"><g style="fill:#ffcc4d;fill-opacity:1"><path d="M0 0c0-9.941-8.059-18-18-18S-36-9.941-36 0s8.059 18 18 18S0 9.941 0 0" style="fill:#ffcc4d;fill-opacity:1;fill-rule:nonzero;stroke:none" transform="matrix(1.25 0 0 -1.25 44.882 22.635)"/></g><g style="fill:#664500;fill-opacity:1"><path d="M0 0c0-2.763-1.791-3-4-3s-4 .237-4 3c0 2.761 1.79 6 4 6s4-3.239 4-6" style="fill:#664500;fill-opacity:1;fill-rule:nonzero;stroke:none" transform="matrix(1.7267 0 0 -.97285 29.289 33.975)"/></g><g style="fill:#77b255;fill-opacity:1"><path d="M0 0c0-1.104-8.059-2-18-2s-18 .896-18 2 8.059 2 18 2S0 1.104 0 0" style="fill:#77b255;fill-opacity:1;fill-rule:nonzero;stroke:none" transform="matrix(.84177 0 0 -1.25 37.534 42.635)"/></g><g style="fill:#77b255;fill-opacity:1"><path d="M0 0c0-1.657.86-2-3-2s-3 .343-3 2 1.343 2 3 2 3-.343 3-2" style="fill:#77b255;fill-opacity:1;fill-rule:nonzero;stroke:none" transform="matrix(2.06699 0 0 -2.67813 28.583 37.837)"/></g><path d="M0 0c0-1.934-1.119-3.5-2.5-3.5S-5-1.934-5 0s1.119 3.5 2.5 3.5S0 1.933 0 0" style="fill:#664500;fill-opacity:1;fill-rule:nonzero;stroke:none" transform="matrix(1.25 0 0 -1.25 18.007 19.11)"/><path d="M0 0c0-1.934-1.119-3.5-2.5-3.5S-5-1.934-5 0s1.119 3.5 2.5 3.5S0 1.933 0 0" style="fill:#664500;fill-opacity:1;fill-rule:nonzero;stroke:none" transform="matrix(1.25 0 0 -1.25 33.007 19.11)"/><g style="fill:#ffcc4d;fill-opacity:1"><path d="M38.15 15.518a1.5 1.5 0 0 0-1.182-.263c-5.793 1.152-9.44-1.465-9.592-1.579-.58-.426-1.432-.363-1.902.143-.471.507-.389 1.263.187 1.696.192.144 4.79 3.52 11.948 2.098.728-.144 1.173-.79.996-1.44a1.22 1.22 0 0 0-.454-.655" style="fill:#ffcc4d;fill-opacity:1;fill-rule:nonzero;stroke:none" transform="matrix(.87951 0 0 1.49294 3.015 -8.383)"/><g style="fill:#ffcc4d;fill-opacity:1"><path d="M0 0a1 1 0 0 0-.799 1.6C2.463 5.95 6.817 6 7.001 6a1 1 0 0 0 .004-2C6.85 3.998 3.436 3.914.801.4A1 1 0 0 0 0 0" style="fill:#ffcc4d;fill-opacity:1;fill-rule:nonzero;stroke:none" transform="matrix(.92014 -1.17368 .75719 1.36858 9.048 14.786)"/></g></g><path d="M76.137 25.627c-.27.227-.657.347-1.062.298-5.445-.656-8.538 1.832-8.667 1.94-.492.405-1.282.4-1.764-.01-.485-.413-.485-1.074.001-1.483.163-.137 4.055-3.34 10.784-2.53.684.081 1.159.615 1.06 1.19a1 1 0 0 1-.352.595" style="fill:#f4900c;fill-opacity:1;fill-rule:nonzero;stroke:none" transform="translate(-38.426 -2.936)"/><g style="fill:#f4900c;fill-opacity:1"><path d="M0 0a1 1 0 0 0-.799 1.6C2.463 5.95 6.817 6 7.001 6a1 1 0 0 0 .004-2C6.85 3.998 3.436 3.914.801.4A1 1 0 0 0 0 0" style="fill:#f4900c;fill-opacity:1;fill-rule:nonzero;stroke:none" transform="scale(1.25 -1.05256)rotate(-45 -23.2 -17.589)"/></g><path d="M6.78 7.064c1.233.085 2.738-.584 2.662-2.58-.026-.68-.597-.982-1.41.366-.45.746-1.345.736-2.743-.198C3.111 3.381 2.181-2.12 1.048-.273.155 1.18 3.684 6.85 6.78 7.064" style="fill:#664500;fill-opacity:1;fill-rule:nonzero;stroke:none" transform="matrix(.65126 -1.24244 1.0605 .66545 7.1 19.243)"/><path d="M5.744 6.562c.616.043.798-.483.974.154.44 1.596 3.155-.323 3.258-1.67.082-1.082-2.263 1.078-2.282.579-.026-.681-.322-2.6-1.135-1.252-.45.746-.908.712-2.306-.222C2.074 2.88 1.633-1.922.5-.075c-.892 1.454 2.148 6.423 5.244 6.637" style="fill:#664500;fill-opacity:1;fill-rule:nonzero;stroke:none" transform="matrix(-.73015 -1.16217 -1.01288 .78592 38.15 18.136)"/></svg>
